icons/mobile/24/svg/plugin-24.svg

<svg width="24" height="24" viewBox="0 0 24 24" fill="none" xmlns="http://www.w3.org/2000/svg">
<path fill-rule="evenodd" clip-rule="evenodd" d="M16.25 4C16.577 4 17.04 4.0247 17.582 4.1377C18.2669 4.28066 18.7498 4.90273 18.75 5.60254V7.40527C18.9198 7.42559 19.0909 7.44466 19.2627 7.4668C20.8205 7.66758 22 8.9946 22 10.5723V16.4297C22 17.989 20.854 19.3265 19.292 19.5293C17.1258 19.8096 14.6793 20 12 20C9.86922 20 7.42458 19.8805 4.7373 19.5342C3.17954 19.3334 2 18.0064 2 16.4287V10.5713C2 9.01198 3.14602 7.67452 4.70801 7.47168C4.88642 7.44859 5.06782 7.42708 5.25 7.40527V5.60547C5.25 4.88947 5.75112 4.27386 6.45312 4.13086C6.83309 4.05388 7.26906 4 7.75 4C8.07699 4 8.54004 4.0247 9.08203 4.1377C9.76688 4.28066 10.2498 4.90273 10.25 5.60254V7.0293C10.8215 7.01161 11.405 7.00098 12 7.00098C12.5619 7.00098 13.1457 7.00973 13.75 7.02832V5.60547C13.75 4.88947 14.2511 4.27386 14.9531 4.13086C15.3331 4.05388 15.7691 4 16.25 4ZM12 8.75098C9.40348 8.75098 7.03329 8.93535 4.93359 9.20703C4.25983 9.29442 3.75 9.87477 3.75 10.5713V16.4287C3.75 17.119 4.2687 17.7086 4.96094 17.7979C7.56556 18.1335 9.93485 18.25 12 18.25C14.5965 18.25 16.9667 18.0656 19.0664 17.7939C19.7402 17.7066 20.25 17.1262 20.25 16.4297V10.5723C20.25 9.88193 19.7313 9.29235 19.0391 9.20312C16.4344 8.86746 14.0652 8.75098 12 8.75098Z" fill="black"/>
</svg>

<!-- This Source Code Form is subject to the terms of the Mozilla Public
   - License, v. 2.0. If a copy of the MPL was not distributed with this
   - file, You can obtain one at http://mozilla.org/MPL/2.0/. -->
<svg xmlns="http://www.w3.org/2000/svg" width="24" height="24" fill="none" viewBox="0 0 24 24">
    <path fill="#000" fill-rule="evenodd" d="M16.25 4c.327 0 .79.025 1.332.138.685.143 1.168.765 1.168 1.465v1.802l.513.062A3.14 3.14 0 0 1 22 10.572v5.858a3.12 3.12 0 0 1-2.708 3.1 56.8 56.8 0 0 1-14.555.004A3.14 3.14 0 0 1 2 16.43v-5.86a3.12 3.12 0 0 1 2.708-3.1l.542-.066v-1.8c0-.716.501-1.331 1.203-1.474a6.5 6.5 0 0 1 2.629.007c.685.143 1.168.765 1.168 1.465v1.426a57 57 0 0 1 3.5 0V5.604c0-.716.501-1.331 1.203-1.474.38-.077.816-.131 1.297-.131M12 8.751c-2.597 0-4.967.184-7.066.456a1.37 1.37 0 0 0-1.184 1.364v5.858c0 .69.519 1.28 1.21 1.369a55 55 0 0 0 14.106-.004 1.37 1.37 0 0 0 1.184-1.364v-5.858c0-.69-.519-1.28-1.21-1.369A55 55 0 0 0 12 8.751" clip-rule="evenodd" />
</svg>
